packages/kaspersky-hexa-ui-icons/src/iconsSVGs/16/Settings21.svg

<svg width="16" height="16" viewBox="0 0 16 16" fill="none" xmlns="http://www.w3.org/2000/svg">
<path fill-rule="evenodd" clip-rule="evenodd" d="M7.99964 5.20752C6.45748 5.20752 5.20732 6.45768 5.20732 7.99984C5.20732 9.54199 6.45748 10.7922 7.99964 10.7922C9.54179 10.7922 10.792 9.54199 10.792 7.99984C10.792 6.45768 9.54179 5.20752 7.99964 5.20752ZM6.50732 7.99984C6.50732 7.17565 7.17545 6.50752 7.99964 6.50752C8.82382 6.50752 9.49195 7.17565 9.49195 7.99984C9.49195 8.82402 8.82382 9.49215 7.99964 9.49215C7.17545 9.49215 6.50732 8.82402 6.50732 7.99984Z" fill="black"/>
<path fill-rule="evenodd" clip-rule="evenodd" d="M6.84504 0.949951C6.52016 0.949951 6.24517 1.18982 6.20106 1.51168L5.98742 3.07036C5.53636 3.25465 5.1165 3.49889 4.7377 3.79298L3.27919 3.19868C2.97844 3.07614 2.63338 3.19438 2.471 3.47563L1.31662 5.47507C1.15418 5.75642 1.22442 6.1145 1.48111 6.31364L2.72508 7.27872C2.69308 7.51477 2.67658 7.75548 2.67658 7.99976C2.67658 8.24437 2.69312 8.48541 2.72521 8.72176L1.48198 9.68716C1.22548 9.88635 1.15535 10.2443 1.31773 10.5255L2.47211 12.525C2.63455 12.8063 2.97977 12.9246 3.28057 12.8018L4.73836 12.2071C5.11697 12.5009 5.53658 12.745 5.98736 12.9291L6.20106 14.4882C6.24517 14.8101 6.52016 15.05 6.84504 15.05H9.15379C9.47856 15.05 9.75348 14.8102 9.79773 14.4885L10.0122 12.929C10.4629 12.7448 10.8824 12.5008 11.261 12.207L12.7191 12.8019C13.0199 12.9247 13.3652 12.8064 13.5276 12.5251L14.682 10.5257C14.8443 10.2444 14.7742 9.88646 14.5177 9.68727L13.2741 8.72155C13.3062 8.48527 13.3227 8.2443 13.3227 7.99976C13.3227 7.75556 13.3062 7.51492 13.2742 7.27895L14.5186 6.31353C14.7753 6.11439 14.8455 5.75631 14.6831 5.47496L13.5287 3.47552C13.3663 3.19427 13.0213 3.07603 12.7205 3.19858L11.2616 3.79304C10.8829 3.49898 10.4631 3.25477 10.0121 3.07048L9.79773 1.51139C9.75348 1.18966 9.47856 0.949951 9.15379 0.949951H6.84504ZM7.41202 2.24995H8.58707L8.83347 4.04162L9.22398 4.16622C9.77989 4.34359 10.284 4.63896 10.7065 5.02355L11.0097 5.29947L12.6863 4.61632L13.2738 5.63394L11.8446 6.74268L11.9314 7.14291C11.9911 7.41845 12.0227 7.70505 12.0227 7.99976C12.0227 8.2947 11.9911 8.58151 11.9312 8.85724L11.8445 9.25733L13.2728 10.3665L12.6853 11.3841L11.0095 10.7004L10.7062 10.9763C10.2837 11.3607 9.77975 11.656 9.22403 11.8333L8.83352 11.9579L8.58707 13.75H7.41202L7.16642 11.9581L6.77565 11.8334C6.21979 11.6561 5.71573 11.3609 5.29316 10.9764L4.98985 10.7004L3.31445 11.384L2.72693 10.3663L4.15486 9.25751L4.06806 8.85741C4.00822 8.58162 3.97658 8.29476 3.97658 7.99976C3.97658 7.70499 4.00817 7.41833 4.06792 7.14273L4.1547 6.74248L2.72595 5.63405L3.31347 4.61643L4.98961 5.29941L5.29277 5.0235C5.71544 4.63884 6.21965 4.34344 6.7757 4.16609L7.16647 4.04145L7.41202 2.24995Z" fill="black"/>
</svg>

<svg xmlns="http://www.w3.org/2000/svg" width="16" height="16" fill="none" viewBox="0 0 16 16"><path fill="#000" fill-rule="evenodd" d="M7.9996 5.2075c-1.5421 0-2.7923 1.2502-2.7923 2.7923s1.2502 2.7924 2.7923 2.7924S10.792 9.542 10.792 7.9998c0-1.5421-1.2502-2.7923-2.7924-2.7923M6.5073 7.9998c0-.8241.6681-1.4923 1.4923-1.4923s1.4923.6681 1.4923 1.4923-.668 1.4924-1.4923 1.4924-1.4923-.6682-1.4923-1.4924" clip-rule="evenodd"/><path fill="#000" fill-rule="evenodd" d="M6.845.95a.65.65 0 0 0-.644.5617l-.2136 1.5587a5.32 5.32 0 0 0-1.2497.7226l-1.4585-.5943a.65.65 0 0 0-.8082.277L1.3166 5.475a.65.65 0 0 0 .1645.8385l1.244.9651a5.4 5.4 0 0 0-.0485.721c0 .2447.0165.4857.0486.722l-1.2432.9655a.65.65 0 0 0-.1643.8383l1.1544 1.9995a.65.65 0 0 0 .8085.2768l1.4578-.5947a5.32 5.32 0 0 0 1.249.722l.2137 1.5591a.65.65 0 0 0 .644.5618h2.3087a.65.65 0 0 0 .644-.5615l.2144-1.5595a5.32 5.32 0 0 0 1.2488-.722l1.4581.5949a.65.65 0 0 0 .8085-.2768l1.1544-1.9994a.65.65 0 0 0-.1643-.8384l-1.2436-.9657a5.4 5.4 0 0 0 .0486-.7218c0-.2442-.0165-.4849-.0485-.7208l1.2444-.9655a.65.65 0 0 0 .1645-.8385l-1.1544-1.9995a.65.65 0 0 0-.8082-.277l-1.4589.5945a5.32 5.32 0 0 0-1.2495-.7225l-.2144-1.5591A.65.65 0 0 0 9.1537.95zm.567 1.3h1.175l.2465 1.7916.3905.1246a4.02 4.02 0 0 1 1.4825.8574l.3032.2759 1.6766-.6832.5875 1.0176-1.4292 1.1088.0868.4002a4.04 4.04 0 0 1 .0913.8569c0 .2949-.0316.5817-.0915.8574l-.0867.4001 1.4283 1.1092-.5875 1.0176-1.6758-.6837-.3033.2759a4.02 4.02 0 0 1-1.4822.857l-.3905.1246-.2464 1.7921H7.412l-.2457-1.7919-.3908-.1247a4.02 4.02 0 0 1-1.4824-.857l-.3033-.276-1.6754.6836-.5876-1.0177 1.428-1.1088-.0868-.4a4.04 4.04 0 0 1-.0915-.8577c0-.2948.0316-.5815.0913-.857l.0868-.4003L2.726 5.634l.5875-1.0177 1.6761.683.3032-.2759a4.02 4.02 0 0 1 1.4829-.8574l.3908-.1246z" clip-rule="evenodd"/></svg>
